Catalina-light/apps/scalable/mcomix.svg

<?xml version="1.0" encoding="UTF-8" standalone="no"?>
<!-- Created with Inkscape (http://www.inkscape.org/) -->

<svg
   xmlns:dc="http://purl.org/dc/elements/1.1/"
   xmlns:cc="http://creativecommons.org/ns#"
   xmlns:rdf="http://www.w3.org/1999/02/22-rdf-syntax-ns#"
   xmlns:svg="http://www.w3.org/2000/svg"
   xmlns="http://www.w3.org/2000/svg"
   xmlns:xlink="http://www.w3.org/1999/xlink"
   xmlns:sodipodi="http://sodipodi.sourceforge.net/DTD/sodipodi-0.dtd"
   xmlns:inkscape="http://www.inkscape.org/namespaces/inkscape"
   version="1.1"
   id="svg2"
   width="128"
   height="128"
   viewBox="0 0 128 128"
   sodipodi:docname="mcomix.svg"
   inkscape:version="0.92.5 (2060ec1f9f, 2020-04-08)">
  <metadata
     id="metadata8">
    <rdf:RDF>
      <cc:Work
         rdf:about="">
        <dc:format>image/svg+xml</dc:format>
        <dc:type
           rdf:resource="http://purl.org/dc/dcmitype/StillImage" />
        <dc:title></dc:title>
      </cc:Work>
    </rdf:RDF>
  </metadata>
  <defs
     id="defs6">
    <linearGradient
       inkscape:collect="always"
       id="linearGradient833">
      <stop
         style="stop-color:#dfe3e8;stop-opacity:1"
         offset="0"
         id="stop829" />
      <stop
         style="stop-color:#fefeff;stop-opacity:1"
         offset="1"
         id="stop831" />
    </linearGradient>
    <linearGradient
       inkscape:collect="always"
       id="linearGradient823">
      <stop
         style="stop-color:#ccd4da;stop-opacity:1"
         offset="0"
         id="stop819" />
      <stop
         style="stop-color:#ffffff;stop-opacity:1"
         offset="1"
         id="stop821" />
    </linearGradient>
    <linearGradient
       inkscape:collect="always"
       xlink:href="#linearGradient823"
       id="linearGradient825"
       x1="-741.83197"
       y1="959.04749"
       x2="-741.83197"
       y2="93.836403"
       gradientUnits="userSpaceOnUse"
       gradientTransform="matrix(0.13667801,0,0,0.13667801,162.31231,-5.989337)" />
    <linearGradient
       inkscape:collect="always"
       xlink:href="#linearGradient833"
       id="linearGradient835"
       x1="-738.76385"
       y1="931.43433"
       x2="-738.76385"
       y2="152.13077"
       gradientUnits="userSpaceOnUse"
       gradientTransform="matrix(0.13667801,0,0,0.13667801,162.31231,-5.989337)" />
  </defs>
  <sodipodi:namedview
     pagecolor="#ffffff"
     bordercolor="#666666"
     borderopacity="1"
     objecttolerance="10"
     gridtolerance="10"
     guidetolerance="10"
     inkscape:pageopacity="0"
     inkscape:pageshadow="2"
     inkscape:window-width="1920"
     inkscape:window-height="1023"
     id="namedview4"
     showgrid="false"
     inkscape:zoom="3.6874999"
     inkscape:cx="97.470649"
     inkscape:cy="69.117402"
     inkscape:window-x="0"
     inkscape:window-y="29"
     inkscape:window-maximized="1"
     inkscape:current-layer="svg2" />
  <circle
     style="opacity:1;fill:url(#linearGradient825);fill-opacity:1;stroke:none;stroke-width:0.78699166;stroke-linecap:round;stroke-linejoin:round;stroke-miterlimit:4;stroke-dasharray:none;stroke-opacity:1"
     id="path817"
     cx="63.591888"
     cy="64.286316"
     r="61.380009" />
  <circle
     r="55.089832"
     cy="64.286316"
     cx="63.591888"
     id="circle827"
     style="opacity:1;fill:url(#linearGradient835);fill-opacity:1;stroke:none;stroke-width:0.70634133;stroke-linecap:round;stroke-linejoin:round;stroke-miterlimit:4;stroke-dasharray:none;stroke-opacity:1" />
  <path
     style="fill:#333333"
     d="M 50.710938 10.787109 A 55.089832 55.089832 0 0 0 40.40625 14.382812 L 40.40625 65.626953 L 8.5488281 65.626953 A 55.089832 55.089832 0 0 0 9.5722656 74.847656 L 117.64258 74.847656 A 55.089832 55.089832 0 0 0 118.61523 65.626953 L 50.710938 65.626953 L 50.710938 10.787109 z "
     id="rect69" />
</svg>

<svg width="128" height="128" version="1.1" viewBox="0 0 128 128" xmlns="http://www.w3.org/2000/svg">
<defs>
<linearGradient id="linearGradient825" x1="-741.83" x2="-741.83" y1="959.05" y2="93.836" gradientTransform="matrix(.13668 0 0 .13668 162.31 -5.9893)" gradientUnits="userSpaceOnUse"/>
<linearGradient id="linearGradient835" x1="-738.76" x2="-738.76" y1="931.43" y2="152.13" gradientTransform="matrix(.13668 0 0 .13668 162.31 -5.9893)" gradientUnits="userSpaceOnUse"/>
</defs>
<circle cx="63.592" cy="64.286" r="61.38" fill="url(#linearGradient825)"/>
<circle cx="63.592" cy="64.286" r="55.09" fill="url(#linearGradient835)"/>
<path d="m50.711 10.787a55.09 55.09 0 0 0-10.305 3.5957v51.244h-31.857a55.09 55.09 0 0 0 1.0234 9.2207h108.07a55.09 55.09 0 0 0 0.97265-9.2207h-67.904v-54.84z" fill="#333"/>
</svg>
